icons/bug-48.svg

<svg width="48" height="48" viewBox="0 0 48 48" fill="none" xmlns="http://www.w3.org/2000/svg">
<path fill-rule="evenodd" clip-rule="evenodd" d="M15.4392 0.43934C16.025 -0.146447 16.9748 -0.146447 17.5606 0.43934L19.9675 2.8463C21.201 2.30215 22.5651 2 23.9999 2C25.4347 2 26.7988 2.30215 28.0323 2.8463L30.4392 0.43934C31.025 -0.146447 31.9748 -0.146447 32.5606 0.43934C33.1463 1.02513 33.1463 1.97487 32.5606 2.56066L30.618 4.50317C32.692 6.33545 33.9999 9.01499 33.9999 12L33.9999 14.207C35.8832 14.7397 37.3558 16.2504 37.8344 18.1557L41.8291 16.1584C42.57 15.7879 43.4711 16.0882 43.8415 16.8292C44.212 17.5701 43.9117 18.4712 43.1707 18.8416L37.9999 21.4271V27.0022L42.5021 27.0088C43.3305 27.01 44.0011 27.6826 43.9999 28.511C43.9987 29.3394 43.3261 30.01 42.4977 30.0088L37.9999 30.0022V32C37.9999 33.1623 37.8582 34.2916 37.5913 35.3714C37.6179 35.3829 37.6444 35.3952 37.6707 35.4084L43.1707 38.1584C43.9117 38.5288 44.212 39.4299 43.8415 40.1708C43.4711 40.9118 42.57 41.2121 41.8291 40.8416L36.5537 38.204C34.2663 42.8236 29.5041 46 23.9999 46C18.6203 46 13.9494 42.9658 11.6052 38.5154L6.09078 40.8787C5.32933 41.2051 4.44751 40.8523 4.12118 40.0909C3.79485 39.3294 4.14757 38.4476 4.90902 38.1213L10.5008 35.7248C10.1743 34.5388 9.9999 33.2898 9.9999 32V30.0088H5.4999C4.67147 30.0088 3.9999 29.3372 3.9999 28.5088C3.9999 27.6804 4.67147 27.0088 5.4999 27.0088H9.9999V21.4271L4.82908 18.8416C4.08811 18.4712 3.78777 17.5701 4.15826 16.8292C4.52874 16.0882 5.42975 15.7879 6.17072 16.1584L10.1654 18.1557C10.644 16.2504 12.1166 14.7397 13.9999 14.207V12C13.9999 9.01499 15.3078 6.33545 17.3817 4.50317L15.4392 2.56066C14.8534 1.97487 14.8534 1.02513 15.4392 0.43934ZM16.9999 14H30.9999L30.9999 12C30.9999 8.134 27.8659 5 23.9999 5C20.1339 5 16.9999 8.13401 16.9999 12V14ZM12.9999 20.5325C13.0003 20.5116 13.0003 20.4907 12.9999 20.4698V19.5C12.9999 18.1193 14.1192 17 15.4999 17H32.4999C33.8806 17 34.9999 18.1193 34.9999 19.5V20.4698C34.9995 20.4907 34.9995 20.5116 34.9999 20.5325V32C34.9999 38.0751 30.075 43 23.9999 43C17.9248 43 12.9999 38.0751 12.9999 32V20.5325Z" fill="black"/>
</svg>

<svg xmlns="http://www.w3.org/2000/svg" width="48" height="48" viewBox="0 0 48 48"><path fill-rule="evenodd" d="M15.44.44a1.5 1.5 0 012.12 0l2.408 2.406A9.966 9.966 0 0124 2c1.435 0 2.799.302 4.032.846L30.44.44a1.5 1.5 0 012.122 2.122l-1.943 1.942A9.976 9.976 0 0134 12v2.207a5.51 5.51 0 013.834 3.949l3.995-1.998a1.5 1.5 0 111.342 2.684L38 21.427v5.575l4.502.007a1.5 1.5 0 01-.004 3L38 30.002V32c0 1.162-.142 2.292-.409 3.371l.08.037 5.5 2.75a1.5 1.5 0 11-1.342 2.684l-5.275-2.638C34.266 42.824 29.504 46 24 46c-5.38 0-10.05-3.034-12.395-7.485L6.091 40.88a1.5 1.5 0 11-1.182-2.758l5.592-2.396A14.015 14.015 0 0110 32v-1.991H5.5a1.5 1.5 0 010-3H10v-5.582l-5.17-2.585a1.5 1.5 0 111.34-2.684l3.995 1.998A5.51 5.51 0 0114 14.207V12a9.976 9.976 0 013.382-7.497l-1.943-1.942a1.5 1.5 0 010-2.122zM17 14h14v-2a7 7 0 10-14 0v2zm-4 6.532V19.5a2.5 2.5 0 012.5-2.5h17a2.5 2.5 0 012.5 2.5V32c0 6.075-4.925 11-11 11s-11-4.925-11-11V20.532z"/></svg>
